!!!OTL: Die schoene Welt.
!!!OTL-incipit:AUF GOTTES WELT ISTS SCHOEN
!!!ARE: Europa, Mitteleuropa, Deutschland
!!!SCT: F0254
!!!TXL: @@DE
!!!YEM: Copyright 1995, estate of Helmut Schaffrath.
**kern	**text
*ICvox	*
*clefG2	*
*M2/4	*
*k[f#c#g#]	*
*A:	*
!LO:TX:a:t=Munter.	!
{8ee	1._Auf
=1	=1
8cc#	Gottes
8a	.
8b/	Welt
8g#	iſt's
=2	=2
4a	ſchön!
8r}	.
{8a	Da
=3	=3
8cc#	giebt's
8a	der
8cc#	Freu-
8a	-den
=4	=4
8ee	mancher-
8ee	.
4ee}	-lei
=5	=5
{8b	Menſch
8b	und
4b	Thier
=6	=6
8dd	freun
8dd	ſich
8dd}	hier.
{8ee	Auf
=7	=7
8cc#	Got-
8a	-tes
8b/	Welt
8g#	iſt's
=8	=8
4a	ſchön.
8r}	.
==	==
!!!AGN: Jugend - Lied, Belehrung, religioes
!!!ONB: ESAC (Essen Associative Code) Database: FINK
!!!AMT: simple duple
!!!AIN: vox
!!!EED: Helmut Schaffrath
!!!EEV: 1.0
!!!GTL: Jugendlieder
!!Text: G. W. Burmann
!!!source: Musikalischer Hausschatz der Deutschen. Eine Sammlung von über 1000 Liedern und Gesängen mit Singstimmen und Klavierbegleitung. Leipzig, Litterarisches Verlags-Haus.
!!!page: 153
!!!URL-scan: https://www.digitale-sammlungen.de/en/view/bsb11144622?page=150,151
!!!ENC: Anna Maria Matuszewska
!!!EEV: 2024/07/29
*-	*-
